X:1581
L:1/8
M:9/8
K:G
 E | GAB cdc B2 A | GAB c2 A BGE | GAB edc B2 A | GED CDE GED | CDE E=FD E2 D | CDE =F2 D EDA, | 
 CDE E=FD E2 e | edc B2 A BG!fermata!E ||

